X:871
T:Garton Mother's Lullaby
O:ireland
C:Trad.
S:Digital Tradition, gartlull
N:Old Donegal Air
D:Recorded by Ian Campbell Folk Group
Z:dt:gartlull
M:6/8
L:1/8
Q:3/8=75
W:Sleep, oh babe, for the red bee hums the silent twilight's fall
W:Ee val from the grey rock comes to wrap the world in thrall
W:A lyan van oh, my child, my joy, my love and heart's desire
W:The crickets sing you lullaby beside the dying fire
W:
W:Dusk is drawn and the Green Man's thorn is wreathed in rings of  fog
W:Sheevra sails his boat till morn, upon the starry bog
W:A lyn van o, the paley moon hath brimmed her cusp in dew
W:And weeps to hear the sad sleep tune I sing, o love, to you
K:C
C2C EEF|G2F E2C|E2D C2C|C6|\
G2G d-cB|c2c G2B|c2c B/-G3/2E|F3- F2G|
c2c d-cB|c2c G2B|c2c B/-G3/2E|F3- F2G-|\
A2A _B-GE|EE2 C2E|F2E C2C|C6||
